Numix-Light-GalliumOS/scalable/status/battery-full-charged-symbolic.svg

<?xml version="1.0" encoding="UTF-8" standalone="no"?>
<svg
   xmlns:dc="http://purl.org/dc/elements/1.1/"
   xmlns:cc="http://creativecommons.org/ns#"
   xmlns:rdf="http://www.w3.org/1999/02/22-rdf-syntax-ns#"
   xmlns:svg="http://www.w3.org/2000/svg"
   xmlns="http://www.w3.org/2000/svg"
   xmlns:sodipodi="http://sodipodi.sourceforge.net/DTD/sodipodi-0.dtd"
   xmlns:inkscape="http://www.inkscape.org/namespaces/inkscape"
   width="16"
   viewBox="0 0 16 16"
   height="16"
   id="svg2"
   version="1.1"
   inkscape:version="0.48.5 r10040"
   sodipodi:docname="battery-full-charged-symbolic.svg">
  <metadata
     id="metadata12">
    <rdf:RDF>
      <cc:Work
         rdf:about="">
        <dc:format>image/svg+xml</dc:format>
        <dc:type
           rdf:resource="http://purl.org/dc/dcmitype/StillImage" />
      </cc:Work>
    </rdf:RDF>
  </metadata>
  <defs
     id="defs10" />
  <sodipodi:namedview
     pagecolor="#ffffff"
     bordercolor="#666666"
     borderopacity="1"
     objecttolerance="10"
     gridtolerance="10"
     guidetolerance="10"
     inkscape:pageopacity="0"
     inkscape:pageshadow="2"
     inkscape:window-width="640"
     inkscape:window-height="480"
     id="namedview8"
     showgrid="false"
     inkscape:zoom="18.264648"
     inkscape:cx="8"
     inkscape:cy="8"
     inkscape:window-x="0"
     inkscape:window-y="28"
     inkscape:window-maximized="0"
     inkscape:current-layer="svg2" />
  <path
     d="M 5 0 L 5 2 L 2 2 L 2 16 L 14 16 L 14 2 L 11 2 L 11 0 L 5 0 z M 11.125 5 L 13 6.84375 L 6.75 13 C 5.4679486 11.737672 4.2820513 10.574827 3 9.3125 L 4.875 7.46875 L 6.75 9.3125 L 11.125 5 z "
     id="path4"
     style="fill:#353535;fill-opacity:1" />
</svg>

<svg xmlns="http://www.w3.org/2000/svg" viewBox="0 0 16 16">
 <path d="m 5 0 l 0 2 l -3 0 l 0 14 l 12 0 l 0 -14 l -3 0 l 0 -2 l -6 0 z m 6.125 5 l 1.875 1.844 l -6.25 6.156 c -1.282 -1.262 -2.468 -2.425 -3.75 -3.688 l 1.875 -1.844 l 1.875 1.844 l 4.375 -4.313 z" style="fill:#353535;fill-opacity:1"/>
</svg>
